!!!COM: Corelli, Arcangelo
!!!OPR: Sonata da camera
!!!OPS: 4
!!!ONM: 11
!!!OMV: 1
!!!OTL: Preludio
!!!OMD: Largo
**kern	**fb	**kern	**kern
*part4	*part4	*part2	*part1
*staff4	*	*staff2	*staff1
*I"Violone & Cembalo	*	*I"Violino II	*I"Violino I
*clefF4	*	*clefG2	*clefG2
*k[b-e-]	*	*k[b-e-]	*k[b-e-]
*g:	*	*g:	*g:
*M4/4	*	*M4/4	*M4/4
*met(c)	*	*met(c)	*met(c)
*MM56	*	*MM56	*MM56
=1	=1	=1	=1
4C	.	4ee-	4.gg
8r	.	8r	.
8c	.	8ee-	8gg
8BnL	6	8ddL	8ggL
8c	.	8ee-	8gg
8G	n	8bn	8gg
8cJ	.	8ee-J	8ggJ
=2	=2	=2	=2
4Bn	6	4dd	4gg
8r	.	8r	8r
8c	-6	8ee-	4aa-X
8B-XL	-7	4dd	.
8E-	7	.	4gg
8A-X	7	4cc	.
8DJ	7	.	[8ff
=3	=3	=3	=3
8GL	7	4b-	8ff]
8C	7	.	4ee-
8F	7 -	4a-X	.
8BB-J	7	.	4dd
8E-L	7	4g	.
8AA-X	7	.	4cc
8D	7	4f	.
8GGJ	7 n	.	8bn
=4	=4	=4	=4
8CL	.	8e-	4cc
8E-	6	4cc	.
8F	6 5	.	4dd
8GJ	n	8bn	.
8CL	.	8ccL	8ee-
8BB-J	6	8ddJ	4gg
4AA-X	7	4cc	.
.	6	.	8ff
=5	=5	=5	=5
2GG	n	2bn	2gg
2r;	.	2r;	2r;
=6	=6	=6	=6
4E-	.	4gg	4.bb-
8r	.	8r	.
8e-	.	8gg	8bb-
8dL	6	8ffL	8bb-L
8e-	.	8gg	8bb-
8B-	.	8dd	8bb-
8e-J	.	8ggJ	8bb-J
=7	=7	=7	=7
4d	6	4ff	4bb-
8r	.	8r	8r
8e-	6	8gg	4ccc
8dL	7	4ff	.
8G	7	.	4bb-
8c	7	4ee-	.
8FJ	7 -	.	[8aa-X
=8	=8	=8	=8
8B-L	-7	4dd	8aa-]
8E-	7	.	4gg
8A-X	7	4cc	.
8DJ	7	.	4ff
8GL	7	4b-	.
8C	7	.	4ee-
8F	7 -	4a-X	.
8BB-J	-7	.	8dd
=9	=9	=9	=9
8E-L	.	4g	8ee-L
8G	6	.	8b-
8A-X	.	8r	8ccJ
8AA-XJ	.	8cc	4a-X
8BB-L	-7	8d	.
8C	5	4e-	8g
8AA-	6	.	4f
8BB-J	5	8d	.
=10	=10	=10	=10
8EE-L	5	4e-	8g
8E-	6	.	4cc
8F	6 5	4.dd	.
8GJ	n	.	8bn
8C	9	.	4ee-
4c	8	8ccL	.
.	4 2	8ff	4dd
8Bn	5	8ddJ	.
=11	=11	=11	=11
4e-	7	4g	8r
.	6	.	4gg
4d	4	4.aa	.
.	#	.	8ff#X
8r	.	.	4bb-Xi
4G	3	8ggL	.
.	4 2	8ccc	4aa
8F#X	5	8aaJ	.
=12	=12	=12	=12
4B-	7	4dd	8r
.	6	.	4ddd
4c	9 n	4een	.
.	8	.	4ccc
8dL	7 #	8ff#X	.
8G	.	4gg	8bb-
8C	#6\ 5	.	4aa
8DJ	#	8ff#	.
=13	=13	=13	=13
4.G	5	4gg	8ggL
.	.	.	8aaJ
.	.	8r	4.bb-
8F	4 2	8gg	.
8EnL	6 5	8cc	.
8F	-	4ffni	8aa-X
8BB-	6 5 -	.	4gg
8CJ	n	8een	.
=14	=14	=14	=14
4.F	-	4ff	8aa-XL
.	.	.	8ffJ
.	.	8r	4.aa-
8E-Xi	-4 2	8ff	.
8DL	6 -r5	8b-	.
8E-	.	4ee-Xi	8gg
8AA-X	6 5	.	4ff
8BB-J	.	8dd	.
=15	=15	=15	=15
8EE-L	.	8ee-L	8gg
8E-	.	8ggJ	4ee-
8AAni	6 5	4ff	.
8BBnJ	5	.	4dd
8CL	9	4ee-	.
8E-	6	.	4cc
8F	6 5	4dd	.
8GJ	.	.	[8b-
=16	=16	=16	=16
8A-XL	9	4cc	8b-]
8C	-6	.	4a-X
8D	6 5	4b-	.
8EnJ	5	.	4g
8FL	9 -	4a-X	.
8AA-X	6	.	4f
8BB-Xi	6 5 -	4g	.
8CJ	n	.	8en
=17	=17	=17	=17
8FFL	-	4f	8fL
8F	.	.	8cc
8G	#6\	8r	8en
8A-XJ	6	8cc	8fJ
8GL	#6\	8enL	8r
8F	-	8fJ	8ccL
8G	#6\	8r	8e
8A-J	6	8cc	8fJ
=18	=18	=18	=18
8GL	#6\	4en	8r
8C	n	.	8ggL
8D	#6\	8r	8bn
8E-J	6	8gg	8ccJ
8DL	#6\	8bnL	8r
8C	-	8ccJ	8ggL
8D	#6\	8r	8b
8E-J	6	8gg	8ccJ
=19	=19	=19	=19
8DL	#6\	8bnL	8r
8E-	6	8ccJ	8ggL
8F	-	8r	8aa-X
8GJ	n	8b	8ggJ
8A-XL	6	8ccL	8r
8G	6	8b-XJ	8ee-L
8A-	6	8r	8ff
8GJ	6	8b-	8ee-J
=20	=20	=20	=20
8FL	6 -	8a-XL	8r
8E-	6	8gJ	8ccL
8F	6 -	8r	8dd
8E-J	6	8g	8ccJ
8DL	#6\	8fL	8r
8E-	6	8e-J	8ggL
8F	-	8r	8aa-X
8A-XJ	6	8cc	[8ffJ
=21	=21	=21	=21
8GL	7 n	8bn	8ffL]
8C	.	4cc	8ee-J
8G	5 4	.	4dd
8GGJ	n	8b	.
8CL	.	[2cc	[2cc
8F	-	.	.
8En	6	.	.
8CJ	.	.	.
=22	=22	=22	=22
8FFL	-	1cc]	1cc]
8F	.	.	.
8En	6	.	.
8CJ	.	.	.
8FL	-	.	.
8G	.	.	.
8A-X	.	.	.
8FJ	.	.	.
=23	=23	=23	=23
4D	#6\	4bn	4f
4C	.	2cc	4e-
2GG	5 4	.	2d
.	n	4b	.
=24	=24	=24	=24
1C;	.	1cc;	1c;
==	==	==	==
*-	*-	*-	*-
!!!system-decoration: [{s1,s2},s3,s4]
!!!YEM: CC BY-NC-SA 4.0; CCARH; DCML
!!!RDF**kern: i = editorial accidental